; generated by PrusaSlicer 2.5.0+linux-x64-GTK2 on 2022-09-15 at 11:17:57 UTC


;
;

;
;
; Ultimaker 2, 0.4 mm Nozzle

; external perimeters extrusion width = 0.45mm
; perimeters extrusion width = 0.45mm
; infill extrusion width = 0.50mm
; solid infill extrusion width = 0.45mm
; top infill extrusion width = 0.40mm
; first layer extrusion width = 0.45mm

M107 ; disable fan
;TYPE:Custom
; Printer_Settings_ID: My

; # # # # # # START Header
G21 		; metric values
G90 		; absolute positioning
M82 		; set extruder to absolute mode
M107 		; start with the fan off

G28 X0 Y0 Z0	; move X/Y/Z to endstops
G1 X1 Y6 F15000	; move X/Y to start position
G1 Z35 F9000	; move Z to start position

; Heat up bed and nozzle
M190 S50	; wait for bed temperature - 5
M140 S55	; continue bed heating
M109 S205	; wait for nozzle temperature

G92 E0		; zero the extruded length
G1 F150 E22	; purge nozzle with filament
G92 E0		; zero the extruded length again
G1 F75 E7	; additional priming
G92 E0		; zero the extruded length again

; # # # # # # END Header
G21 ; set units to millimeters
G90 ; use absolute coordinates
M82 ; use absolute distances for extrusion
G92 E0 ; reset extrusion distance
; Filament gcode
M107 ; disable fan
;LAYER_CHANGE
;Z:0.2
;HEIGHT:0.2
;BEFORE_LAYER_CHANGE
;layer:0;
M117 Layer 0;

G1 E-6 F3000 ; retract
G92 E0 ; reset extrusion distance
G1 Z.2 F9000 ; move to next layer (0)
G1 X30.603 Y59.636 ; move to first skirt point
G1 E6 F3000 ;  ; unretract
;TYPE:Skirt/Brim
;WIDTH:0.45
G1 F1800
G1 X33.157 Y58.325 E6.03664 ; skirt
G1 X40.751 Y55.66 E6.13935 ; skirt
G1 X48.176 Y54.117 E6.23613 ; skirt
G1 X56.203 Y53.536 E6.33884 ; skirt
G1 X167.797 Y53.536 E7.76305 ; skirt
G1 X175.824 Y54.117 E7.86575 ; skirt
G1 X183.249 Y55.66 E7.96254 ; skirt
G1 X190.843 Y58.325 E8.06525 ; skirt
G1 X198.003 Y61.999 E8.16796 ; skirt
G1 X204.957 Y66.908 E8.27658 ; skirt
G1 X210.816 Y72.424 E8.37929 ; skirt
G1 X215.602 Y78.307 E8.47608 ; skirt
G1 X219.669 Y84.933 E8.5753 ; skirt
G1 X220.025 Y85.579 E8.58472 ; skirt
G1 X223.046 Y92.535 E8.6815 ; skirt
G1 X225.248 Y100.276 E8.78421 ; skirt
G1 X226.375 Y108.244 E8.88692 ; skirt
G1 X226.375 Y116.756 E8.99555 ; skirt
G1 X225.248 Y124.724 E9.09825 ; skirt
G1 X223.202 Y132.027 E9.19504 ; skirt
G1 X220.025 Y139.421 E9.29775 ; skirt
G1 X215.871 Y146.313 E9.40046 ; skirt
G1 X210.499 Y152.916 E9.50908 ; skirt
G1 X204.596 Y158.386 E9.61179 ; skirt
G1 X198.003 Y163.001 E9.7145 ; skirt
G1 X190.843 Y166.675 E9.81721 ; skirt
G1 X183.697 Y169.215 E9.91399 ; skirt
G1 X175.824 Y170.883 E10.0167 ; skirt
G1 X167.797 Y171.464 E10.11941 ; skirt
G1 X56.435 Y171.472 E11.54065 ; skirt
G1 X48.637 Y170.946 E11.6404 ; skirt
G1 X40.303 Y169.215 E11.74903 ; skirt
G1 X32.731 Y166.49 E11.85174 ; skirt
G1 X25.6 Y162.759 E11.95444 ; skirt
G1 X19.043 Y158.092 E12.05715 ; skirt
G1 X13.501 Y152.916 E12.15394 ; skirt
G1 X8.398 Y146.693 E12.25665 ; skirt
G1 X4.189 Y139.834 E12.35935 ; skirt
G1 X.798 Y132.027 E12.46798 ; skirt
G1 X-1.248 Y124.724 E12.56477 ; skirt
G1 X-2.375 Y116.756 E12.66748 ; skirt
G1 X-2.375 Y108.244 E12.7761 ; skirt
G1 X-1.248 Y100.276 E12.87881 ; skirt
G1 X.798 Y92.973 E12.9756 ; skirt
G1 X4.189 Y85.166 E13.08423 ; skirt
G1 X8.129 Y78.687 E13.18101 ; skirt
G1 X13.184 Y72.424 E13.28372 ; skirt
G1 X19.043 Y66.908 E13.38643 ; skirt
G1 X25.997 Y61.999 E13.49506 ; skirt
G1 X30.55 Y59.663 E13.56036 ; skirt
G1 E7.56036 F3000 ; retract
G92 E0 ; reset extrusion distance
G1 X21.873 Y69.915 F9000 ; move to first infill point
G1 E6 F3000 ;  ; unretract
;TYPE:Solid infill
;WIDTH:0.450401
G1 F1800
G1 X62.152 Y110.193 E6.72769 ; infill
G1 X61.684 Y110.302 E6.73382 ; infill
G1 X21.699 Y70.317 E7.45621 ; infill
G1 X21.401 Y70.595 E7.46142 ; infill
G1 X61.243 Y110.437 E8.18123 ; infill
G1 X60.819 Y110.59 E8.18699 ; infill
G1 X21.103 Y70.873 E8.90452 ; infill
G1 X20.805 Y71.152 E8.90973 ; infill
G1 X60.395 Y110.742 E9.62499 ; infill
G1 X59.971 Y110.894 E9.63074 ; infill
G1 X20.507 Y71.43 E10.34372 ; infill
G1 X20.209 Y71.708 E10.34893 ; infill
G1 X59.575 Y111.074 E11.06014 ; infill
G1 X59.199 Y111.275 E11.06558 ; infill
G1 X19.911 Y71.986 E11.77538 ; infill
G1 X19.613 Y72.265 E11.78059 ; infill
G1 X58.823 Y111.475 E12.48897 ; infill
G1 X58.446 Y111.675 E12.49441 ; infill
G1 X19.315 Y72.543 E13.20138 ; infill
G1 X19.017 Y72.821 E13.20659 ; infill
G1 X58.07 Y111.875 E13.91214 ; infill
G1 X57.694 Y112.075 E13.91759 ; infill
G1 X18.719 Y73.1 E14.62173 ; infill
G1 X18.421 Y73.378 E14.62694 ; infill
G1 X57.332 Y112.289 E15.32992 ; infill
G1 X56.995 Y112.528 E15.3352 ; infill
G1 X18.123 Y73.656 E16.03749 ; infill
G1 X17.825 Y73.935 E16.0427 ; infill
G1 X56.658 Y112.768 E16.74427 ; infill
G1 X56.321 Y113.007 E16.74955 ; infill
G1 X17.527 Y74.213 E17.45043 ; infill
G1 X17.229 Y74.491 E17.45563 ; infill
G1 X55.986 Y113.248 E18.15584 ; infill
G1 X55.681 Y113.519 E18.16106 ; infill
G1 X16.931 Y74.769 E18.86113 ; infill
G1 X16.633 Y75.048 E18.86634 ; infill
G1 X55.376 Y113.79 E19.56627 ; infill
G1 X55.07 Y114.061 E19.57149 ; infill
G1 X16.355 Y75.346 E20.27094 ; infill
G1 X16.096 Y75.663 E20.27617 ; infill
G1 X54.765 Y114.332 E20.97477 ; infill
G1 X54.495 Y114.638 E20.97998 ; infill
G1 X15.838 Y75.981 E21.67838 ; infill
G1 X15.579 Y76.299 E21.68361 ; infill
G1 X54.231 Y114.95 E22.3819 ; infill
G1 X53.966 Y115.262 E22.38713 ; infill
G1 X15.321 Y76.617 E23.08531 ; infill
G1 X15.062 Y76.934 E23.09055 ; infill
G1 X53.702 Y115.574 E23.78863 ; infill
G1 X53.438 Y115.886 E23.79385 ; infill
G1 X14.804 Y77.252 E24.49183 ; infill
G1 X14.545 Y77.57 E24.49706 ; infill
G1 X53.173 Y116.198 E25.19493 ; infill
G1 X52.921 Y116.522 E25.20018 ; infill
G1 X14.287 Y77.888 E25.89817 ; infill
G1 X14.028 Y78.205 E25.9034 ; infill
G1 X52.696 Y116.874 E26.602 ; infill
G1 X52.472 Y117.225 E26.60733 ; infill
G1 X13.77 Y78.523 E27.30654 ; infill
G1 X13.511 Y78.841 E27.31177 ; infill
G1 X52.247 Y117.577 E28.01159 ; infill
G1 X52.027 Y117.933 E28.01694 ; infill
G1 X13.253 Y79.159 E28.71745 ; infill
G1 X12.994 Y79.476 E28.72269 ; infill
G1 X51.835 Y118.317 E29.4244 ; infill
G1 X51.642 Y118.701 E29.42988 ; infill
G1 X12.736 Y79.794 E30.13279 ; infill
G1 X12.477 Y80.112 E30.13802 ; infill
G1 X51.45 Y119.085 E30.84212 ; infill
G1 X51.257 Y119.468 E30.8476 ; infill
G1 X12.219 Y80.43 E31.5529 ; infill
G1 X11.96 Y80.747 E31.55813 ; infill
G1 X51.114 Y119.902 E32.26551 ; infill
G1 X50.972 Y120.335 E32.27134 ; infill
G1 X11.713 Y81.077 E32.9806 ; infill
G1 X11.495 Y81.435 E32.98596 ; infill
G1 X50.829 Y120.769 E33.69658 ; infill
G1 X50.686 Y121.202 E33.70241 ; infill
G1 X11.277 Y81.793 E34.41438 ; infill
G1 X11.059 Y82.152 E34.41974 ; infill
G1 X50.543 Y121.636 E35.13308 ; infill
G1 X50.401 Y122.069 E35.13891 ; infill
G1 X10.841 Y82.51 E35.8536 ; infill
G1 X10.623 Y82.868 E35.85896 ; infill
G1 X50.315 Y122.56 E36.57605 ; infill
G1 X50.231 Y123.052 E36.58243 ; infill
G1 X10.406 Y83.227 E37.30193 ; infill
G1 X10.188 Y83.585 E37.30729 ; infill
G1 X50.147 Y123.544 E38.0292 ; infill
G1 X50.073 Y124.047 E38.0357 ; infill
G1 X9.97 Y83.943 E38.76023 ; infill
G1 X9.752 Y84.302 E38.76558 ; infill
G1 X50.044 Y124.594 E39.49352 ; infill
G1 X50.015 Y125.141 E39.50052 ; infill
G1 X9.534 Y84.66 E40.23186 ; infill
G1 X9.316 Y85.018 E40.23722 ; infill
G1 X49.985 Y125.688 E40.97197 ; infill
G1 X49.982 Y126.261 E40.97929 ; infill
G1 X9.098 Y85.377 E41.71792 ; infill
G1 X8.88 Y85.735 E41.72328 ; infill
G1 X49.982 Y126.837 E42.46584 ; infill
G1 X49.982 Y127.413 E42.4732 ; infill
G1 X8.662 Y86.094 E43.21971 ; infill
G1 X8.444 Y86.452 E43.22507 ; infill
G1 X49.982 Y127.99 E43.97551 ; infill
G1 X49.982 Y128.566 E43.98287 ; infill
G1 X8.226 Y86.81 E44.73724 ; infill
G1 X8.008 Y87.169 E44.7426 ; infill
G1 X49.982 Y129.142 E45.50092 ; infill
G1 X49.982 Y129.718 E45.50828 ; infill
G1 X7.812 Y87.548 E46.27014 ; infill
G1 X7.637 Y87.95 E46.27574 ; infill
G1 X49.982 Y130.295 E47.04075 ; infill
G1 X49.982 Y130.871 E47.04812 ; infill
G1 X7.463 Y88.352 E47.81628 ; infill
G1 X7.288 Y88.754 E47.82188 ; infill
G1 X49.982 Y131.447 E48.5932 ; infill
G1 X49.982 Y132.023 E48.60056 ; infill
G1 X7.114 Y89.155 E49.37504 ; infill
G1 X6.939 Y89.557 E49.38063 ; infill
G1 X49.982 Y132.6 E50.15826 ; infill
G1 X49.982 Y133.176 E50.16562 ; infill
G1 X6.765 Y89.959 E50.9464 ; infill
G1 X6.59 Y90.361 E50.952 ; infill
G1 X49.982 Y133.752 E51.73593 ; infill
G1 X49.982 Y134.329 E51.74329 ; infill
G1 X6.416 Y90.762 E52.53038 ; infill
G1 X6.241 Y91.164 E52.53598 ; infill
G1 X49.982 Y134.905 E53.32621 ; infill
G1 X49.982 Y135.481 E53.33358 ; infill
G1 X6.067 Y91.566 E54.12697 ; infill
G1 X5.892 Y91.968 E54.13256 ; infill
G1 X49.982 Y136.057 E54.92911 ; infill
G1 X49.982 Y136.634 E54.93647 ; infill
G1 X5.718 Y92.369 E55.73617 ; infill
G1 X5.543 Y92.771 E55.74176 ; infill
G1 X49.982 Y137.21 E56.54461 ; infill
G1 X49.982 Y137.786 E56.55197 ; infill
G1 X5.369 Y93.173 E57.35797 ; infill
G1 X5.194 Y93.575 E57.36357 ; infill
G1 X49.982 Y138.362 E58.17273 ; infill
G1 X49.982 Y138.719 E58.17728 ; infill
G1 X50.003 Y138.96 E58.18037 ; infill
G1 X5.02 Y93.976 E58.99306 ; infill
G1 X4.926 Y94.193 E58.99608 ; infill
G1 X4.868 Y94.4 E58.99883 ; infill
G1 X50.059 Y139.592 E59.81527 ; infill
G1 X50.114 Y140.223 E59.82337 ; infill
G1 X4.741 Y94.851 E60.6431 ; infill
G1 X4.615 Y95.301 E60.64907 ; infill
G1 X50.17 Y140.855 E61.47207 ; infill
G1 X50.225 Y141.487 E61.48018 ; infill
G1 X4.489 Y95.751 E62.30646 ; infill
G1 X4.363 Y96.201 E62.31243 ; infill
G1 X50.384 Y142.222 E63.14386 ; infill
G1 X50.568 Y142.982 E63.15385 ; infill
G1 X4.237 Y96.651 E63.99089 ; infill
G1 X4.111 Y97.101 E63.99686 ; infill
G1 X50.836 Y143.827 E64.84102 ; infill
G1 X51.178 Y144.744 E64.85353 ; infill
G1 X3.985 Y97.551 E65.70614 ; infill
G1 X3.859 Y98.002 E65.71211 ; infill
G1 X51.763 Y145.906 E66.57757 ; infill
G1 X52.436 Y147.155 E66.5957 ; infill
G1 X3.732 Y98.452 E67.4756 ; infill
G1 X3.606 Y98.902 E67.48157 ; infill
G1 X71.873 Y167.168 E68.7149 ; infill
G1 X72.449 Y167.168 E68.72226 ; infill
G1 X57.577 Y152.296 E68.99095 ; infill
G1 X58.327 Y152.761 E69.00223 ; infill
G1 X58.891 Y153.034 E69.01024 ; infill
G1 X73.025 Y167.168 E69.26559 ; infill
G1 X73.601 Y167.168 E69.27295 ; infill
G1 X59.967 Y153.534 E69.51927 ; infill
G1 X60.82 Y153.811 E69.53074 ; infill
G1 X74.178 Y167.168 E69.77206 ; infill
G1 X74.754 Y167.168 E69.77942 ; infill
G1 X61.674 Y154.088 E70.01573 ; infill
G1 X62.528 Y154.365 E70.02719 ; infill
G1 X75.33 Y167.168 E70.25849 ; infill
G1 X75.906 Y167.168 E70.26585 ; infill
G1 X63.236 Y154.498 E70.49476 ; infill
G1 X63.926 Y154.611 E70.50368 ; infill
G1 X76.483 Y167.168 E70.73054 ; infill
G1 X77.059 Y167.168 E70.7379 ; infill
G1 X64.591 Y154.7 E70.96316 ; infill
G1 X65.2 Y154.732 E70.97094 ; infill
G1 X77.635 Y167.168 E71.19561 ; infill
G1 X78.212 Y167.168 E71.20297 ; infill
G1 X65.808 Y154.765 E71.42706 ; infill
G1 X66.196 Y154.785 E71.43202 ; infill
G1 X66.388 Y154.768 E71.43448 ; infill
G1 X78.788 Y167.168 E71.6585 ; infill
G1 X79.364 Y167.168 E71.66586 ; infill
G1 X66.917 Y154.721 E71.89074 ; infill
G1 X67.446 Y154.673 E71.89752 ; infill
G1 X79.94 Y167.168 E72.12326 ; infill
G1 X80.517 Y167.168 E72.13062 ; infill
G1 X67.974 Y154.626 E72.35721 ; infill
G1 X68.503 Y154.579 E72.36399 ; infill
G1 X81.093 Y167.168 E72.59144 ; infill
G1 X81.669 Y167.168 E72.5988 ; infill
G1 X69.032 Y154.531 E72.82711 ; infill
G1 X69.501 Y154.423 E72.83325 ; infill
G1 X82.245 Y167.168 E73.06351 ; infill
G1 X82.822 Y167.168 E73.07087 ; infill
G1 X69.962 Y154.308 E73.3032 ; infill
G1 X70.423 Y154.193 E73.30927 ; infill
G1 X83.398 Y167.168 E73.54368 ; infill
G1 X83.974 Y167.168 E73.55104 ; infill
G1 X70.884 Y154.078 E73.78753 ; infill
G1 X71.3 Y153.918 E73.79323 ; infill
G1 X84.55 Y167.168 E74.03261 ; infill
G1 X85.127 Y167.168 E74.03997 ; infill
G1 X71.717 Y153.758 E74.28224 ; infill
G1 X72.133 Y153.598 E74.28794 ; infill
G1 X85.703 Y167.168 E74.5331 ; infill
G1 X86.279 Y167.168 E74.54046 ; infill
G1 X72.55 Y153.438 E74.78851 ; infill
G1 X72.924 Y153.236 E74.79394 ; infill
G1 X86.856 Y167.168 E75.04564 ; infill
G1 X87.432 Y167.168 E75.053 ; infill
G1 X73.296 Y153.032 E75.30838 ; infill
G1 X73.668 Y152.828 E75.31381 ; infill
G1 X88.008 Y167.168 E75.57288 ; infill
G1 X88.584 Y167.168 E75.58024 ; infill
G1 X74.04 Y152.624 E75.843 ; infill
G1 X74.412 Y152.42 E75.84842 ; infill
G1 X89.161 Y167.168 E76.11487 ; infill
G1 X89.737 Y167.168 E76.12224 ; infill
G1 X74.784 Y152.216 E76.39237 ; infill
G1 X74.933 Y152.134 E76.39453 ; infill
G1 X75.131 Y151.986 E76.3977 ; infill
G1 X90.313 Y167.168 E76.67198 ; infill
G1 X90.889 Y167.168 E76.67934 ; infill
G1 X75.461 Y151.74 E76.95807 ; infill
G1 X75.792 Y151.494 E76.96333 ; infill
G1 X91.466 Y167.168 E77.2465 ; infill
G1 X92.042 Y167.168 E77.25386 ; infill
G1 X76.122 Y151.248 E77.54149 ; infill
G1 X76.446 Y150.996 E77.54673 ; infill
G1 X92.618 Y167.168 E77.83891 ; infill
G1 X93.194 Y167.168 E77.84627 ; infill
G1 X76.742 Y150.716 E78.1435 ; infill
G1 X77.038 Y150.436 E78.14871 ; infill
G1 X93.771 Y167.168 E78.451 ; infill
G1 X94.347 Y167.168 E78.45836 ; infill
G1 X77.335 Y150.156 E78.76572 ; infill
G1 X77.631 Y149.876 E78.77092 ; infill
G1 X94.923 Y167.168 E79.08333 ; infill
G1 X95.499 Y167.168 E79.0907 ; infill
G1 X77.896 Y149.565 E79.40873 ; infill
G1 X78.152 Y149.244 E79.41396 ; infill
G1 X96.076 Y167.168 E79.73779 ; infill
G1 X96.652 Y167.168 E79.74515 ; infill
G1 X78.408 Y148.924 E80.07476 ; infill
G1 X78.663 Y148.603 E80.08 ; infill
G1 X97.228 Y167.168 E80.4154 ; infill
G1 X97.805 Y167.168 E80.42276 ; infill
G1 X78.919 Y148.283 E80.76395 ; infill
G1 X79.175 Y147.962 E80.76919 ; infill
G1 X98.381 Y167.168 E81.11617 ; infill
G1 X98.957 Y167.168 E81.12353 ; infill
G1 X79.431 Y147.642 E81.47631 ; infill
G1 X79.65 Y147.285 E81.48166 ; infill
G1 X99.533 Y167.168 E81.84088 ; infill
G1 X100.11 Y167.168 E81.84824 ; infill
G1 X79.866 Y146.924 E82.21397 ; infill
G1 X80.081 Y146.564 E82.21934 ; infill
G1 X100.686 Y167.168 E82.59159 ; infill
G1 X101.262 Y167.168 E82.59895 ; infill
G1 X80.297 Y146.203 E82.97772 ; infill
G1 X80.492 Y145.822 E82.98319 ; infill
G1 X101.838 Y167.168 E83.36884 ; infill
G1 X102.415 Y167.168 E83.3762 ; infill
G1 X90.032 Y154.785 E83.59992 ; infill
G1 X90.608 Y154.785 E83.60728 ; infill
G1 X102.991 Y167.168 E83.83099 ; infill
G1 X103.567 Y167.168 E83.83835 ; infill
G1 X91.184 Y154.785 E84.06207 ; infill
G1 X91.761 Y154.785 E84.06943 ; infill
G1 X104.143 Y167.168 E84.29314 ; infill
G1 X104.72 Y167.168 E84.3005 ; infill
G1 X92.337 Y154.785 E84.52422 ; infill
G1 X92.913 Y154.785 E84.53158 ; infill
G1 X105.296 Y167.168 E84.75529 ; infill
G1 X105.872 Y167.168 E84.76265 ; infill
G1 X93.489 Y154.785 E84.98637 ; infill
G1 X94.066 Y154.785 E84.99373 ; infill
G1 X106.449 Y167.168 E85.21744 ; infill
G1 X107.025 Y167.168 E85.2248 ; infill
G1 X94.642 Y154.785 E85.44852 ; infill
G1 X95.218 Y154.785 E85.45588 ; infill
G1 X107.601 Y167.168 E85.67959 ; infill
G1 X108.177 Y167.168 E85.68695 ; infill
G1 X95.795 Y154.785 E85.91067 ; infill
G1 X96.371 Y154.785 E85.91803 ; infill
G1 X108.754 Y167.168 E86.14174 ; infill
G1 X109.33 Y167.168 E86.1491 ; infill
G1 X96.947 Y154.785 E86.37282 ; infill
G1 X97.523 Y154.785 E86.38018 ; infill
G1 X109.906 Y167.168 E86.60389 ; infill
G1 X110.482 Y167.168 E86.61125 ; infill
G1 X98.1 Y154.785 E86.83497 ; infill
G1 X98.676 Y154.785 E86.84233 ; infill
G1 X111.059 Y167.168 E87.06604 ; infill
G1 X111.635 Y167.168 E87.0734 ; infill
G1 X99.252 Y154.785 E87.29712 ; infill
G1 X99.676 Y154.764 E87.30254 ; infill
G1 X99.77 Y154.727 E87.30383 ; infill
G1 X112.211 Y167.168 E87.5286 ; infill
G1 X112.787 Y167.168 E87.53596 ; infill
G1 X100.124 Y154.505 E87.76474 ; infill
G1 X100.251 Y154.333 E87.76747 ; infill
G1 X100.329 Y154.134 E87.7702 ; infill
G1 X113.364 Y167.168 E88.00569 ; infill
G1 X113.94 Y167.168 E88.01305 ; infill
G1 X100.359 Y153.587 E88.25841 ; infill
G1 X100.359 Y153.011 E88.26577 ; infill
G1 X114.516 Y167.168 E88.52154 ; infill
G1 X115.092 Y167.168 E88.5289 ; infill
G1 X100.359 Y152.435 E88.79509 ; infill
G1 X100.359 Y151.858 E88.80245 ; infill
G1 X115.669 Y167.168 E89.07904 ; infill
