;FLAVOR:Marlin
;TIME:700
;Filament used: 1.34321m
;Layer height: 0.2
;MINX:96
;MINY:96
;MINZ:0.2
;MAXX:124
;MAXY:124
;MAXZ:20
;Generated with Cura_SteamEngine 4.7.1
M140 S60
M105
M190 S60
M104 S200
M105
M109 S200
M82 ;absolute extrusion mode
M300
G28 ;Home
G1 Z15.0 F6000 ;Move the platform down 15mm
;Prime the extruder
G92 E0
G1 F200 E3
G92 E0
G92 E0
M900 K1
G92 E0
G1 F1500 E-6.5
;LAYER_COUNT:100
;LAYER:0
M107
G0 F3600 X97.004 Y97.369 Z0.2
;TYPE:SKIRT
G1 F1500 E0
G1 F4500 X97.406 Y96.972 E0.01879
G1 X97.86 Y96.635 E0.0376
G1 X98.357 Y96.366 E0.05639
G1 X98.887 Y96.169 E0.0752
G1 X99.44 Y96.05 E0.09401
G1 X100.218 Y96.002 E0.11994
G1 X100.33 Y96 E0.12366
G1 X119.35 Y96 E0.75627
G1 X120.048 Y96.01 E0.77949
G1 X120.612 Y96.058 E0.79832
G1 X121.162 Y96.185 E0.81709
G1 X121.69 Y96.389 E0.83592
G1 X122.184 Y96.664 E0.85472
G1 X122.633 Y97.007 E0.87352
G1 X123.03 Y97.409 E0.89231
G1 X123.367 Y97.864 E0.91114
G1 X123.635 Y98.361 E0.92992
G1 X123.831 Y98.891 E0.94871
G1 X123.951 Y99.444 E0.96754
G1 X123.998 Y100.218 E0.99333
G1 X124 Y100.33 E0.99705
G1 X124 Y119.314 E1.62846
G1 X123.991 Y120.041 E1.65264
G1 X123.944 Y120.604 E1.67143
G1 X123.818 Y121.155 E1.69023
G1 X123.616 Y121.683 E1.70904
G1 X123.341 Y122.177 E1.72784
G1 X122.999 Y122.627 E1.74664
G1 X122.597 Y123.025 E1.76546
G1 X122.144 Y123.362 E1.78423
G1 X121.647 Y123.632 E1.80305
G1 X121.117 Y123.829 E1.82185
G1 X120.565 Y123.95 E1.84065
G1 X119.782 Y123.998 E1.86674
G1 X119.67 Y124 E1.87047
G1 X100.655 Y124 E2.50291
G1 X99.957 Y123.991 E2.52612
G1 X99.394 Y123.943 E2.54492
G1 X98.843 Y123.817 E2.56372
G1 X98.315 Y123.615 E2.58252
G1 X97.821 Y123.34 E2.60132
G1 X97.371 Y122.998 E2.62012
G1 X96.973 Y122.596 E2.63894
G1 X96.637 Y122.142 E2.65772
G1 X96.367 Y121.645 E2.67654
G1 X96.17 Y121.115 E2.69534
G1 X96.05 Y120.563 E2.71413
G1 X96.001 Y119.766 E2.74069
G1 X96 Y100.62 E3.37749
G1 X96.009 Y99.955 E3.39961
G1 X96.057 Y99.392 E3.4184
G1 X96.183 Y98.841 E3.4372
G1 X96.386 Y98.313 E3.45602
G1 X96.662 Y97.819 E3.47484
G1 X97.004 Y97.369 E3.49364
G0 F3600 X97.397 Y97.531
G1 F4500 X97.794 Y97.171 E3.51146
G1 X98.241 Y96.873 E3.52933
G1 X98.726 Y96.645 E3.54715
G1 X99.24 Y96.492 E3.56499
G1 X99.908 Y96.41 E3.58737
G1 X100.33 Y96.4 E3.60141
G1 X119.345 Y96.4 E4.23386
G1 X120.043 Y96.41 E4.25707
G1 X120.577 Y96.458 E4.27491
G1 X121.098 Y96.584 E4.29273
G1 X121.595 Y96.787 E4.31059
G1 X122.056 Y97.061 E4.32843
G1 X122.471 Y97.4 E4.34625
G1 X122.831 Y97.798 E4.3641
G1 X123.128 Y98.244 E4.38192
G1 X123.356 Y98.73 E4.39978
G1 X123.508 Y99.244 E4.4176
G1 X123.59 Y99.909 E4.43989
G1 X123.6 Y100.33 E4.4539
G1 X123.6 Y119.309 E5.08514
G1 X123.591 Y120.036 E5.10932
G1 X123.544 Y120.57 E5.12715
G1 X123.419 Y121.091 E5.14497
G1 X123.217 Y121.588 E5.16282
G1 X122.944 Y122.05 E5.18066
G1 X122.606 Y122.466 E5.19849
G1 X122.209 Y122.827 E5.21634
G1 X121.763 Y123.125 E5.23418
G1 X121.278 Y123.353 E5.252
G1 X120.764 Y123.507 E5.26985
G1 X120.092 Y123.59 E5.29237
G1 X119.67 Y123.6 E5.30641
G1 X100.661 Y123.6 E5.93865
G1 X99.963 Y123.591 E5.96187
G1 X99.428 Y123.544 E5.97973
G1 X98.907 Y123.418 E5.99756
G1 X98.41 Y123.216 E6.0154
G1 X97.949 Y122.943 E6.03322
G1 X97.533 Y122.604 E6.05107
G1 X97.172 Y122.208 E6.0689
G1 X96.874 Y121.762 E6.08674
G1 X96.646 Y121.276 E6.10459
G1 X96.493 Y120.762 E6.12243
G1 X96.41 Y120.088 E6.14501
G1 X96.4 Y119.658 E6.15932
G1 X96.4 Y100.625 E6.79236
G1 X96.409 Y99.96 E6.81448
G1 X96.457 Y99.426 E6.83231
G1 X96.583 Y98.905 E6.85014
G1 X96.785 Y98.408 E6.86798
G1 X97.058 Y97.947 E6.8858
G1 X97.397 Y97.531 E6.90365
G0 F3600 X97.454 Y98.082
G1 F4500 X97.789 Y97.704 E6.92045
G1 X98.18 Y97.383 E6.93728
G1 X98.617 Y97.128 E6.95411
G1 X99.088 Y96.944 E6.97092
G1 X99.582 Y96.838 E6.98773
G1 X100.24 Y96.801 E7.00965
G1 X119.339 Y96.8 E7.64488
G1 X120.037 Y96.81 E7.6681
G1 X120.54 Y96.857 E7.6849
G1 X121.03 Y96.983 E7.70173
G1 X121.494 Y97.185 E7.71856
G1 X121.92 Y97.457 E7.73537
G1 X122.298 Y97.792 E7.75217
G1 X122.618 Y98.183 E7.76898
G1 X122.873 Y98.62 E7.78581
G1 X123.056 Y99.091 E7.80261
G1 X123.163 Y99.585 E7.81942
G1 X123.199 Y100.24 E7.84124
G1 X123.2 Y119.304 E8.47531
G1 X123.191 Y120.031 E8.4995
G1 X123.145 Y120.534 E8.5163
G1 X123.02 Y121.024 E8.53312
G1 X122.819 Y121.488 E8.54993
G1 X122.548 Y121.915 E8.56675
G1 X122.213 Y122.294 E8.58358
G1 X121.823 Y122.615 E8.60038
G1 X121.387 Y122.871 E8.6172
G1 X120.916 Y123.054 E8.634
G1 X120.422 Y123.162 E8.65082
G1 X119.76 Y123.199 E8.67287
G1 X100.666 Y123.2 E9.30794
G1 X99.968 Y123.191 E9.33116
G1 X99.464 Y123.144 E9.348
G1 X98.974 Y123.019 E9.36481
G1 X98.51 Y122.818 E9.38163
G1 X98.084 Y122.547 E9.39843
G1 X97.705 Y122.212 E9.41525
G1 X97.384 Y121.821 E9.43208
G1 X97.129 Y121.385 E9.44888
G1 X96.945 Y120.914 E9.46569
G1 X96.838 Y120.42 E9.48251
G1 X96.801 Y119.744 E9.50502
G1 X96.8 Y100.631 E10.14072
G1 X96.809 Y99.966 E10.16284
G1 X96.856 Y99.462 E10.17968
G1 X96.982 Y98.973 E10.19648
G1 X97.183 Y98.509 E10.21329
G1 X97.454 Y98.082 E10.23011
G1 F1500 E3.73011
;MESH:xyzCalibration_cube.stl
G0 F3600 X99.335 Y100.614
G0 X100.614 Y100.614
G0 X119.33 Y119.33
G0 X119.4 Y119.4
;TYPE:WALL-INNER
G1 F1500 E10.23011
G1 F4500 X100.6 Y119.4 E10.85541
G1 X100.6 Y100.6 E11.4807
G1 X119.4 Y100.6 E12.10599
G1 X119.4 Y119.4 E12.73128
G0 F3600 X119.8 Y119.8
;TYPE:WALL-OUTER
G1 F4500 X100.2 Y119.8 E13.38318
G1 X100.2 Y100.2 E14.03507
G1 X119.8 Y100.2 E14.68697
G1 X119.8 Y119.8 E15.33887
G0 F3600 X119.6 Y119.8
G0 X119.01 Y119.01
;TYPE:SKIN
G1 F4500 X100.99 Y119.01 E15.93822
G1 X100.99 Y100.99 E16.53757
G1 X119.01 Y100.99 E17.13691
G1 X119.01 Y119.01 E17.73626
G0 F3600 X118.829 Y101.293
G1 F4500 X118.706 Y101.17 E17.74205
G0 F3600 X118.14 Y101.17
G1 F4500 X118.829 Y101.858 E17.77443
G0 F3600 X118.829 Y102.424
G1 F4500 X117.574 Y101.17 E17.83344
G0 F3600 X117.009 Y101.17
G1 F4500 X118.829 Y102.99 E17.91905
G0 F3600 X118.829 Y103.555
G1 F4500 X116.443 Y101.17 E18.03125
G0 F3600 X115.877 Y101.17
G1 F4500 X118.829 Y104.121 E18.17008
G0 F3600 X118.829 Y104.687
G1 F4500 X115.312 Y101.17 E18.33551
G0 F3600 X114.746 Y101.17
G1 F4500 X118.829 Y105.252 E18.52754
G0 F3600 X118.829 Y105.818
G1 F4500 X114.18 Y101.17 E18.74619
G0 F3600 X113.615 Y101.17
G1 F4500 X118.829 Y106.384 E18.99144
G0 F3600 X118.829 Y106.949
G1 F4500 X113.049 Y101.17 E19.26329
G0 F3600 X112.483 Y101.17
G1 F4500 X118.829 Y107.515 E19.56177
G0 F3600 X118.829 Y108.081
G1 F4500 X111.918 Y101.17 E19.88684
G0 F3600 X111.352 Y101.17
G1 F4500 X118.829 Y108.646 E20.23851
G0 F3600 X118.829 Y109.212
G1 F4500 X110.786 Y101.17 E20.6168
G0 F3600 X110.22 Y101.17
G1 F4500 X118.829 Y109.778 E21.02172
G0 F3600 X118.829 Y110.344
G1 F4500 X109.655 Y101.17 E21.45324
G0 F3600 X109.089 Y101.17
G1 F4500 X118.829 Y110.909 E21.91135
G0 F3600 X118.829 Y111.475
G1 F4500 X108.523 Y101.17 E22.39609
G0 F3600 X107.958 Y101.17
G1 F4500 X118.829 Y112.041 E22.90743
G0 F3600 X118.829 Y112.606
G1 F4500 X107.392 Y101.17 E23.44537
G0 F3600 X106.826 Y101.17
G1 F4500 X118.829 Y113.172 E24.00993
G0 F3600 X118.829 Y113.738
G1 F4500 X106.261 Y101.17 E24.60109
G0 F3600 X105.695 Y101.17
G1 F4500 X118.829 Y114.303 E25.21885
G0 F3600 X118.829 Y114.869
G1 F4500 X105.129 Y101.17 E25.86323
G0 F3600 X104.564 Y101.17
G1 F4500 X118.829 Y115.435 E26.53421
G0 F3600 X118.829 Y116
G1 F4500 X103.998 Y101.17 E27.2318
G0 F3600 X103.432 Y101.17
G1 F4500 X118.829 Y116.566 E27.956
G0 F3600 X118.829 Y117.132
G1 F4500 X102.867 Y101.17 E28.7068
G0 F3600 X102.301 Y101.17
G1 F4500 X118.829 Y117.697 E29.48421
G0 F3600 X118.829 Y118.263
G1 F4500 X101.735 Y101.17 E30.28823
G0 F3600 X101.169 Y101.169
G1 F4500 X118.829 Y118.829 E31.1189
G0 F3600 X118.263 Y118.829
G1 F4500 X101.169 Y101.734 E31.92298
G0 F3600 X101.169 Y102.3
G1 F4500 X117.697 Y118.829 E32.70043
G0 F3600 X117.132 Y118.829
G1 F4500 X101.169 Y102.866 E33.45128
G0 F3600 X101.169 Y103.432
G1 F4500 X116.566 Y118.829 E34.17551
G0 F3600 X116 Y118.829
G1 F4500 X101.169 Y103.997 E34.87313
G0 F3600 X101.169 Y104.563
G1 F4500 X115.435 Y118.829 E35.54416
G0 F3600 X114.869 Y118.829
G1 F4500 X101.169 Y105.129 E36.18857
G0 F3600 X101.169 Y105.694
G1 F4500 X114.303 Y118.829 E36.80638
G0 F3600 X113.738 Y118.829
G1 F4500 X101.169 Y106.26 E37.39758
G0 F3600 X101.169 Y106.826
G1 F4500 X113.172 Y118.829 E37.96217
G0 F3600 X112.606 Y118.829
G1 F4500 X101.169 Y107.391 E38.50015
G0 F3600 X101.169 Y107.957
G1 F4500 X112.041 Y118.829 E39.01154
G0 F3600 X111.475 Y118.829
G1 F4500 X101.169 Y108.523 E39.4963
G0 F3600 X101.169 Y109.088
G1 F4500 X110.909 Y118.829 E39.95446
G0 F3600 X110.344 Y118.829
G1 F4500 X101.169 Y109.654 E40.38603
G0 F3600 X101.169 Y110.22
G1 F4500 X109.778 Y118.829 E40.79097
G0 F3600 X109.212 Y118.829
G1 F4500 X101.169 Y110.785 E41.16931
G0 F3600 X101.169 Y111.351
G1 F4500 X108.646 Y118.829 E41.52103
G0 F3600 X108.081 Y118.829
G1 F4500 X101.169 Y111.917 E41.84615
G0 F3600 X101.169 Y112.483
G1 F4500 X107.515 Y118.829 E42.14464
G0 F3600 X106.949 Y118.829
G1 F4500 X101.169 Y113.048 E42.41654
G0 F3600 X101.169 Y113.614
G1 F4500 X106.384 Y118.829 E42.66184
G0 F3600 X105.818 Y118.829
G1 F4500 X101.169 Y114.18 E42.88051
G0 F3600 X101.169 Y114.745
G1 F4500 X105.252 Y118.829 E43.07259
G0 F3600 X104.687 Y118.829
G1 F4500 X101.169 Y115.311 E43.23806
G0 F3600 X101.169 Y115.877
G1 F4500 X104.121 Y118.829 E43.37692
G0 F3600 X103.555 Y118.829
G1 F4500 X101.169 Y116.442 E43.48917
G0 F3600 X101.169 Y117.008
G1 F4500 X102.99 Y118.829 E43.57483
G0 F3600 X102.424 Y118.829
G1 F4500 X101.169 Y117.574 E43.63386
G0 F3600 X101.169 Y118.139
G1 F4500 X101.858 Y118.829 E43.66629
G0 F3600 X101.293 Y118.829
G1 F4500 X101.169 Y118.705 E43.67212
;MESH:NONMESH
G0 F600 X101.169 Y118.705 Z0.4
G0 F3600 X119.33 Y119.33
G0 X119.4 Y119.4
;TIME_ELAPSED:25.121419
;LAYER:1
M106 S255
;TYPE:WALL-INNER
;MESH:xyzCalibration_cube.stl
G1 F6750 X100.6 Y119.4 E44.29741
G1 X100.6 Y100.6 E44.9227
G1 X119.4 Y100.6 E45.54799
G1 X119.4 Y119.4 E46.17328
G0 F5400 X119.8 Y119.8
;TYPE:WALL-OUTER
G1 F4500 X100.2 Y119.8 E46.82518
G1 X100.2 Y100.2 E47.47708
G1 X119.8 Y100.2 E48.12898
G1 X119.8 Y119.8 E48.78088
G0 F5400 X119.6 Y119.8
G0 X119.01 Y119.01
;TYPE:SKIN
G1 F4500 X100.99 Y119.01 E49.38023
G1 X100.99 Y100.99 E49.97957
G1 X119.01 Y100.99 E50.57892
G1 X119.01 Y119.01 E51.17827
G0 F5400 X118.758 Y118.829
G1 F4500 X118.829 Y118.758 E51.18161
G0 F5400 X118.829 Y118.192
G1 F4500 X118.192 Y118.829 E51.21157
G0 F5400 X117.627 Y118.829
G1 F4500 X118.829 Y117.627 E51.26811
G0 F5400 X118.829 Y117.061
G1 F4500 X117.061 Y118.829 E51.35127
G0 F5400 X116.495 Y118.829
G1 F4500 X118.829 Y116.495 E51.46105
G0 F5400 X118.829 Y115.93
G1 F4500 X115.93 Y118.829 E51.59741
G0 F5400 X115.364 Y118.829
G1 F4500 X118.829 Y115.364 E51.7604
G0 F5400 X118.829 Y114.798
G1 F4500 X114.798 Y118.829 E51.95
G0 F5400 X114.233 Y118.829
G1 F4500 X118.829 Y114.233 E52.16619
G0 F5400 X118.829 Y113.667
G1 F4500 X113.667 Y118.829 E52.40899
G0 F5400 X113.101 Y118.829
G1 F4500 X118.829 Y113.101 E52.67842
G0 F5400 X118.829 Y112.536
G1 F4500 X112.536 Y118.829 E52.97442
G0 F5400 X111.97 Y118.829
G1 F4500 X118.829 Y111.97 E53.29705
G0 F5400 X118.829 Y111.404
G1 F4500 X111.404 Y118.829 E53.6463
G0 F5400 X110.838 Y118.829
G1 F4500 X118.829 Y110.838 E54.02217
G0 F5400 X118.829 Y110.273
G1 F4500 X110.273 Y118.829 E54.42462
G0 F5400 X109.707 Y118.829
G1 F4500 X118.829 Y109.707 E54.85369
G0 F5400 X118.829 Y109.141
G1 F4500 X109.141 Y118.829 E55.30938
G0 F5400 X108.576 Y118.829
G1 F4500 X118.829 Y108.576 E55.79165
G0 F5400 X118.829 Y108.01
G1 F4500 X108.01 Y118.829 E56.30054
G0 F5400 X107.444 Y118.829
G1 F4500 X118.829 Y107.444 E56.83606
G0 F5400 X118.829 Y106.879
G1 F4500 X106.879 Y118.829 E57.39815
G0 F5400 X106.313 Y118.829
G1 F4500 X118.829 Y106.313 E57.98687
G0 F5400 X118.829 Y105.747
G1 F4500 X105.747 Y118.829 E58.6022
G0 F5400 X105.182 Y118.829
G1 F4500 X118.829 Y105.182 E59.24412
G0 F5400 X118.829 Y104.616
G1 F4500 X104.616 Y118.829 E59.91265
G0 F5400 X104.05 Y118.829
G1 F4500 X118.829 Y104.05 E60.60781
G0 F5400 X118.829 Y103.485
G1 F4500 X103.485 Y118.829 E61.32954
G0 F5400 X102.919 Y118.829
G1 F4500 X118.829 Y102.919 E62.0779
G0 F5400 X118.829 Y102.353
G1 F4500 X102.353 Y118.829 E62.85288
G0 F5400 X101.788 Y118.829
G1 F4500 X118.829 Y101.788 E63.65444
G0 F5400 X118.829 Y101.222
G1 F4500 X101.222 Y118.829 E64.48262
G0 F5400 X101.17 Y118.315
G1 F4500 X118.316 Y101.169 E65.28911
G0 F5400 X117.75 Y101.169
G1 F4500 X101.17 Y117.75 E66.06901
G0 F5400 X101.17 Y117.184
G1 F4500 X117.185 Y101.169 E66.82231
G0 F5400 X116.619 Y101.169
G1 F4500 X101.17 Y116.618 E67.54898
G0 F5400 X101.17 Y116.053
G1 F4500 X116.053 Y101.169 E68.24905
G0 F5400 X115.488 Y101.169
G1 F4500 X101.17 Y115.487 E68.92253
G0 F5400 X101.17 Y114.921
G1 F4500 X114.922 Y101.169 E69.56938
G0 F5400 X114.356 Y101.169
G1 F4500 X101.17 Y114.356 E70.18963
G0 F5400 X101.17 Y113.79
G1 F4500 X113.791 Y101.169 E70.78329
G0 F5400 X113.225 Y101.169
G1 F4500 X101.17 Y113.224 E71.35032
G0 F5400 X101.17 Y112.659
G1 F4500 X112.659 Y101.169 E71.89075
G0 F5400 X112.094 Y101.169
G1 F4500 X101.17 Y112.093 E72.40458
G0 F5400 X101.17 Y111.527
G1 F4500 X111.528 Y101.169 E72.89179
G0 F5400 X110.962 Y101.169
G1 F4500 X101.17 Y110.962 E73.3524
G0 F5400 X101.17 Y110.396
G1 F4500 X110.397 Y101.169 E73.78641
G0 F5400 X109.831 Y101.169
G1 F4500 X101.17 Y109.83 E74.19379
G0 F5400 X101.17 Y109.264
G1 F4500 X109.265 Y101.169 E74.57456
G0 F5400 X108.699 Y101.169
G1 F4500 X101.17 Y108.699 E74.92872
G0 F5400 X101.17 Y108.133
G1 F4500 X108.134 Y101.169 E75.25629
G0 F5400 X107.568 Y101.169
G1 F4500 X101.17 Y107.567 E75.55723
G0 F5400 X101.17 Y107.002
G1 F4500 X107.002 Y101.169 E75.83157
G0 F5400 X106.437 Y101.169
G1 F4500 X101.17 Y106.436 E76.07932
G0 F5400 X101.17 Y105.87
G1 F4500 X105.871 Y101.169 E76.30044
G0 F5400 X105.305 Y101.169
G1 F4500 X101.17 Y105.305 E76.49496
G0 F5400 X101.17 Y104.739
G1 F4500 X104.74 Y101.169 E76.66288
G0 F5400 X104.174 Y101.169
G1 F4500 X101.17 Y104.173 E76.80418
G0 F5400 X101.17 Y103.608
G1 F4500 X103.608 Y101.169 E76.91888
G0 F5400 X103.043 Y101.169
G1 F4500 X101.17 Y103.042 E77.00698
G0 F5400 X101.17 Y102.476
G1 F4500 X102.477 Y101.169 E77.06846
G0 F5400 X101.911 Y101.169
G1 F4500 X101.17 Y101.911 E77.10333
G0 F5400 X101.17 Y101.345
G1 F4500 X101.346 Y101.169 E77.11161
;MESH:NONMESH
G0 F600 X101.346 Y101.169 Z0.6
G0 F5400 X119.33 Y119.33
G0 X119.4 Y119.4
;TIME_ELAPSED:40.522549
;LAYER:2
;TYPE:WALL-INNER
;MESH:xyzCalibration_cube.stl
G1 F9000 X100.6 Y119.4 E77.7369
G1 X100.6 Y100.6 E78.36219
G1 X119.4 Y100.6 E78.98748
G1 X119.4 Y119.4 E79.61277
G0 F7200 X119.8 Y119.8
;TYPE:WALL-OUTER
G1 F4500 X100.2 Y119.8 E80.26467
G1 X100.2 Y100.2 E80.91657
G1 X119.8 Y100.2 E81.56847
G1 X119.8 Y119.8 E82.22037
G0 F7200 X119.6 Y119.8
G0 X119.01 Y119.01
;TYPE:SKIN
G1 F4500 X100.99 Y119.01 E82.81972
G1 X100.99 Y100.99 E83.41906
G1 X119.01 Y100.99 E84.01841
G1 X119.01 Y119.01 E84.61776
G0 F7200 X118.829 Y101.293
G1 F4500 X118.706 Y101.17 E84.62354
G0 F7200 X118.14 Y101.17
G1 F4500 X118.829 Y101.858 E84.65593
G0 F7200 X118.829 Y102.424
G1 F4500 X117.574 Y101.17 E84.71494
G0 F7200 X117.009 Y101.17
G1 F4500 X118.829 Y102.99 E84.80054
G0 F7200 X118.829 Y103.555
G1 F4500 X116.443 Y101.17 E84.91275
G0 F7200 X115.877 Y101.17
G1 F4500 X118.829 Y104.121 E85.05158
G0 F7200 X118.829 Y104.687
G1 F4500 X115.312 Y101.17 E85.21701
G0 F7200 X114.746 Y101.17
G1 F4500 X118.829 Y105.252 E85.40904
G0 F7200 X118.829 Y105.818
G1 F4500 X114.18 Y101.17 E85.62769
G0 F7200 X113.615 Y101.17
G1 F4500 X118.829 Y106.384 E85.87294
G0 F7200 X118.829 Y106.949
G1 F4500 X113.049 Y101.17 E86.14479
G0 F7200 X112.483 Y101.17
G1 F4500 X118.829 Y107.515 E86.44326
G0 F7200 X118.829 Y108.081
G1 F4500 X111.918 Y101.17 E86.76834
G0 F7200 X111.352 Y101.17
G1 F4500 X118.829 Y108.646 E87.12001
G0 F7200 X118.829 Y109.212
G1 F4500 X110.786 Y101.17 E87.4983
G0 F7200 X110.22 Y101.17
G1 F4500 X118.829 Y109.778 E87.90322
G0 F7200 X118.829 Y110.344
G1 F4500 X109.655 Y101.17 E88.33474
G0 F7200 X109.089 Y101.17
G1 F4500 X118.829 Y110.909 E88.79285
G0 F7200 X118.829 Y111.475
G1 F4500 X108.523 Y101.17 E89.27759
G0 F7200 X107.958 Y101.17
G1 F4500 X118.829 Y112.041 E89.78893
